X:1844
T:The Martyr's Lament
M:6/8
L:1/8
B:O'Neill's 1844
Z:"collected by F. O'Neill"
Z:"Transcribed by Bob Safranek, rjs@gsp.org"
K:G
G/A/|B2 B d2 e|B2 A G2 A|B2 d    e2 f|g3 g2 f/g/|
a2 g f2 e|Te2 d B2 A|Bcd     e2 f|e3 e2 g/e/||
d2 B d2 f|e2 d B2 d|e2 f ag2 f|e3 e  z  e|
d2 B e2 d|B2 A B2 G|A2 A    G2 G|G3 G2|]
